X:6
T:No.106 The Lancers Jig
M:6/8
L:1/8
C:jig
K:D
F2D DED|F2D DFD|ECA, A,CD|
ECA, A,CE|F2D DED|F2D DFA|
Bcd edc|[1d2B A2G:|[2d3d2e||
f2d def|g2f e2f|ecA ABA|ecA Ace|
f2d def|g2f e2d|c2A ABc|d3d2e||
f2d def|g2f e2f|ecA ABA|ecA Ace|
f2d d2f|gab e2d|c2A ABc|d2B A2G||
